fs/clipboard_bullet_list_ltr_16_filled.svg

<svg viewBox="0 0 16 16" fill="none" xmlns="http://www.w3.org/2000/svg" height="1em" width="1em">
  <path d="M5.08535 2C5.29127 1.4174 5.84689 1 6.5 1H9.5C10.1531 1 10.7087 1.4174 10.9146 2H11.5C12.3284 2 13 2.67157 13 3.5V13.5C13 14.3284 12.3284 15 11.5 15H4.5C3.67157 15 3 14.3284 3 13.5V3.5C3 2.67157 3.67157 2 4.5 2H5.08535ZM6.5 2C6.22386 2 6 2.22386 6 2.5C6 2.77614 6.22386 3 6.5 3H9.5C9.77614 3 10 2.77614 10 2.5C10 2.22386 9.77614 2 9.5 2H6.5ZM7 7.5C7 7.77614 7.22386 8 7.5 8H10.5C10.7761 8 11 7.77614 11 7.5C11 7.22386 10.7761 7 10.5 7H7.5C7.22386 7 7 7.22386 7 7.5ZM7 10.5C7 10.7761 7.22386 11 7.5 11H10.5C10.7761 11 11 10.7761 11 10.5C11 10.2239 10.7761 10 10.5 10H7.5C7.22386 10 7 10.2239 7 10.5ZM5.50017 8C5.77632 8 6.00017 7.77614 6.00017 7.5C6.00017 7.22386 5.77632 7 5.50017 7C5.22403 7 5.00017 7.22386 5.00017 7.5C5.00017 7.77614 5.22403 8 5.50017 8ZM5.5 11C5.77614 11 6 10.7761 6 10.5C6 10.2239 5.77614 10 5.5 10C5.22386 10 5 10.2239 5 10.5C5 10.7761 5.22386 11 5.5 11Z" fill="#212121"/>
</svg>

<svg viewBox="0 0 16 16" fill="none" xmlns="http://www.w3.org/2000/svg" height="1em" width="1em">
  <path d="M5.085 2A1.5 1.5 0 0 1 6.5 1h3a1.5 1.5 0 0 1 1.415 1h.585A1.5 1.5 0 0 1 13 3.5v10a1.5 1.5 0 0 1-1.5 1.5h-7A1.5 1.5 0 0 1 3 13.5v-10A1.5 1.5 0 0 1 4.5 2h.585ZM6.5 2a.5.5 0 0 0 0 1h3a.5.5 0 0 0 0-1h-3ZM7 7.5a.5.5 0 0 0 .5.5h3a.5.5 0 0 0 0-1h-3a.5.5 0 0 0-.5.5Zm0 3a.5.5 0 0 0 .5.5h3a.5.5 0 0 0 0-1h-3a.5.5 0 0 0-.5.5ZM5.5 8a.5.5 0 1 0 0-1 .5.5 0 0 0 0 1Zm0 3a.5.5 0 1 0 0-1 .5.5 0 0 0 0 1Z" fill="#212121"/>
</svg>
